polaris-icons/icons/new-icons/SimplifyMajor.svg

<svg width="20" height="20" viewBox="0 0 20 20" fill="none" xmlns="http://www.w3.org/2000/svg">
<path d="M16.25 8.25C16.6642 8.25 17 7.91421 17 7.5C17 7.08579 16.6642 6.75 16.25 6.75L11.5607 6.75L12.7803 5.53033C13.0732 5.23744 13.0732 4.76256 12.7803 4.46967C12.4874 4.17678 12.0126 4.17678 11.7197 4.46967L9.21967 6.96967C8.92678 7.26256 8.92678 7.73744 9.21967 8.03033L11.7197 10.5303C12.0126 10.8232 12.4874 10.8232 12.7803 10.5303C13.0732 10.2374 13.0732 9.76256 12.7803 9.46967L11.5607 8.25H16.25Z" fill="#4A4A4A"/>
<path d="M3.75 11.75C3.33579 11.75 3 12.0858 3 12.5C3 12.9142 3.33579 13.25 3.75 13.25H8.43934L7.21967 14.4697C6.92678 14.7626 6.92678 15.2374 7.21967 15.5303C7.51256 15.8232 7.98744 15.8232 8.28033 15.5303L10.7803 13.0303C11.0732 12.7374 11.0732 12.2626 10.7803 11.9697L8.28033 9.46967C7.98744 9.17678 7.51256 9.17678 7.21967 9.46967C6.92678 9.76256 6.92678 10.2374 7.21967 10.5303L8.43934 11.75H3.75Z" fill="#4A4A4A"/>
</svg>

<svg viewBox="0 0 20 20" xmlns="http://www.w3.org/2000/svg"><path d="M16.25 8.25a.75.75 0 0 0 0-1.5h-4.69l1.22-1.22a.75.75 0 0 0-1.06-1.06l-2.5 2.5a.75.75 0 0 0 0 1.06l2.5 2.5a.75.75 0 1 0 1.06-1.06l-1.22-1.22h4.69Z" fill="#5C5F62"/><path d="M3.75 11.75a.75.75 0 0 0 0 1.5h4.69l-1.22 1.22a.75.75 0 1 0 1.06 1.06l2.5-2.5a.75.75 0 0 0 0-1.06l-2.5-2.5a.75.75 0 0 0-1.06 1.06l1.22 1.22h-4.69Z" fill="#5C5F62"/></svg>
